X: 102
T: Miss Loraine of Kirkharles Reel
C: Abraham Mackintosh
R: reel
M: C|
L: 1/8
Z: 2011 John Chambers <jc:trillian.mit.edu>
B: Abraham Mackintosh "A Collection of Strathspeys, Reels, Jigs &c.", Newcastle, after 1797, p.10
F: http://imslp.info/files/imglnks/usimg/a/a8/IMSLP80796-PMLP164326-Abraham_Mackintosh_coll.pdf
K: G
V: 1
d/c/ |\
BGdg fagd | BGdB cA Ad/c/ | (Bd)dg egfa | gdec BGG :|
g/a/ |\
bgdb afda | geBg fdBf | ecAe dB GD | EcBA BGG g/a/ |
bgdb afda | gfge fdBf | egdg cgBg | fadf gGG |]
V: 2 clef=bass middle=d
z |\
g2b2 d'2b2 | g2g2 d2f2 | g2b2 c'2d'2 | b2c'2 g2F :|
z |\
g2g2 f2f2 | e2e2 d2d2 | c2c2 B2B2 | c2d2 g2G2 |
g2g2 f2f2 | e2e2 d2d2 | c2B2 A2G2 | d2d2 g2G |]

%%sep 2 1 500

